components/Icon/svg/clouds.svg

<svg width="32px" height="32px" viewBox="0 0 32 32" xmlns="http://www.w3.org/2000/svg">
    <path d="M25.009,26.5 L10,26.5 C6.784,26.5 4.0345,24.463 2.971,21.6115 C4.6195,23.6755 7.159,25 10,25 L25.009,25 C26.722,25 28.267,24.2785 29.3605,23.1235 C28.864,25.063 27.103,26.5 25.009,26.5 L25.009,26.5 Z M29.3605,20.1235 C28.864,22.063 27.103,23.5 25.009,23.5 L10,23.5 C6.784,23.5 4.0345,21.463 2.971,18.6115 C4.6195,20.6755 7.159,22 10,22 L25.009,22 C26.722,22 28.267,21.2785 29.3605,20.1235 L29.3605,20.1235 Z M10,5.5 C12.142,5.5 14.1865,6.4195 15.61,8.0215 C15.7975,8.233 15.9775,8.458 16.141,8.692 C16.324,8.953 16.6525,9.0685 16.9585,8.9815 C17.2645,8.8945 17.4835,8.6245 17.503,8.3065 C17.539,7.738 17.74,7.189 18.085,6.721 C18.6595,5.9455 19.54,5.5 20.5015,5.5 C22.156,5.5 23.5015,6.8455 23.5015,8.5 C23.5015,9.2695 23.206,10.0045 22.6705,10.5685 C22.4305,10.8205 22.396,11.206 22.5865,11.497 C22.777,11.788 23.1445,11.9095 23.473,11.7895 C23.9605,11.6095 24.478,11.5195 25.0105,11.5195 C27.487,11.5195 29.5015,13.534 29.5015,16.0105 C29.5015,18.487 27.487,20.5015 25.0105,20.5015 L10.0015,20.5015 C5.866,20.5015 2.5015,17.137 2.5015,13.0015 C2.5015,8.866 5.866,5.5015 10.0015,5.5015 L10,5.5 Z M25.009,10.0195 C24.916,10.0195 24.8245,10.021 24.733,10.0255 C24.91,9.541 25,9.0265 25,8.5 C25,6.019 22.981,4 20.5,4 C19.078,4 17.725,4.684 16.8775,5.83 C16.684,6.091 16.522,6.37 16.39,6.6625 C14.7055,4.9645 12.403,4 10,4 C5.0395,4 1,8.038 1,13 L1,19 C1,23.962 5.0395,28 10,28 L25.009,28 C28.312,28 31,25.312 31,22.009 L31,16.009 C31,12.706 28.312,10.018 25.009,10.018 L25.009,10.0195 Z" fill="currentColor"></path>
</svg>

<svg xmlns="http://www.w3.org/2000/svg" width="32" height="32" viewBox="0 0 32 32">
  <path fill="currentColor" d="M25.009 26.5H10c-3.216 0-5.965-2.037-7.029-4.889A8.982 8.982 0 0 0 10 25h15.009a5.975 5.975 0 0 0 4.351-1.877 4.497 4.497 0 0 1-4.35 3.377Zm4.351-6.377a4.497 4.497 0 0 1-4.35 3.377H10c-3.216 0-5.965-2.037-7.029-4.889A8.982 8.982 0 0 0 10 22h15.009a5.975 5.975 0 0 0 4.351-1.877ZM10 5.5a7.511 7.511 0 0 1 6.141 3.192.75.75 0 0 0 1.362-.386 2.99 2.99 0 0 1 .582-1.585A2.982 2.982 0 0 1 20.501 5.5a2.996 2.996 0 0 1 2.169 5.069.751.751 0 0 0 .803 1.22 4.496 4.496 0 0 1 6.029 4.221 4.496 4.496 0 0 1-4.491 4.492H10c-4.135 0-7.5-3.365-7.5-7.5 0-4.136 3.365-7.5 7.5-7.5V5.5Zm15.009 4.52c-.093 0-.184.001-.276.005A4.43 4.43 0 0 0 25 8.5C25 6.019 22.981 4 20.5 4a4.523 4.523 0 0 0-4.11 2.662A9.01 9.01 0 0 0 10 4c-4.96 0-9 4.038-9 9v6c0 4.962 4.04 9 9 9h15.009A5.998 5.998 0 0 0 31 22.009v-6a5.998 5.998 0 0 0-5.991-5.991v.002Z"/>
</svg>
